alternatives/kde-colorscheme/128/places/folder-temp-open.svg

<?xml version="1.0" encoding="UTF-8" standalone="no"?>
<!-- Created with Inkscape (http://www.inkscape.org/) -->

<svg
   width="128"
   height="128"
   viewBox="0 0 128 128"
   version="1.1"
   id="svg5"
   inkscape:version="1.2.2 (1:1.2.2+202305151914+b0a8486541)"
   sodipodi:docname="folder-temp-open.svg"
   xmlns:inkscape="http://www.inkscape.org/namespaces/inkscape"
   xmlns:sodipodi="http://sodipodi.sourceforge.net/DTD/sodipodi-0.dtd"
   xmlns="http://www.w3.org/2000/svg"
   xmlns:svg="http://www.w3.org/2000/svg">
  <sodipodi:namedview
     id="namedview7"
     pagecolor="#ffffff"
     bordercolor="#000000"
     borderopacity="0.25"
     inkscape:showpageshadow="2"
     inkscape:pageopacity="0.0"
     inkscape:pagecheckerboard="0"
     inkscape:deskcolor="#d1d1d1"
     inkscape:document-units="px"
     showgrid="false"
     inkscape:zoom="6.296875"
     inkscape:cx="63.920596"
     inkscape:cy="64"
     inkscape:window-width="1920"
     inkscape:window-height="1008"
     inkscape:window-x="0"
     inkscape:window-y="0"
     inkscape:window-maximized="1"
     inkscape:current-layer="svg5" />
  <defs
     id="defs2">
    <style
       id="current-color-scheme"
       type="text/css">
         .ColorScheme-Text { color:#232629; }
         .ColorScheme-Highlight { color:#3daee9; }
     </style>
  </defs>
  <path
     d="m 16,17 c -4.431996,0 -8,3.568004 -8,8 v 80 c 0,4.432 3.568004,8 8,8 h 96 c 4.432,0 8,-3.568 8,-8 V 37 c 0,-4.431996 -3.568,-8 -8,-8 H 64 l -8,-8 c -2.7171,-2.640384 -3.568004,-4 -8,-4 z"
     style="opacity:0.3;fill:#000000;stroke-width:4"
     id="path1016"
     sodipodi:nodetypes="ssssssssccss" />
  <path
     id="rect184"
     style="fill:currentColor;fill-opacity:1;stroke-width:4"
     class="ColorScheme-Highlight"
     d="m 16,16 c -4.431996,0 -8,3.568003 -8,8 v 80 c 0,4.432 3.568004,8 8,8 h 96 c 4.432,0 8,-3.568 8,-8 V 36 c 0,-4.431996 -3.568,-8 -8,-8 H 64 l -8,-8 c -2.754764,-2.517342 -3.568004,-4 -8,-4 z"
     sodipodi:nodetypes="sccsssssccss" />
  <path
     id="path1511"
     style="opacity:0.4;fill:#000000;fill-opacity:1;stroke-width:2"
     d="m 16,16 c -4.431988,0 -7.9999998,3.568012 -7.9999998,8 v 36 c 0,-4.418272 3.5817318,-8 7.9999998,-8 h 32 c 4.431988,0 5.33278,-1.5441 8,-4 l 8,-8 h 48 c 4.43198,0 8,3.568016 8,8 V 36 c 0,-4.431988 -3.56801,-8 -8,-8 H 64 l -8,-8 c -2.754756,-2.517336 -3.568012,-4 -8,-4 z" />
  <path
     id="path3081"
     style="opacity:0.2;fill:#ffffff;stroke-width:4"
     d="m 64,40 -8,8 c -2.66722,2.455902 -3.56801,4 -8,4 H 16 c -4.418269,0 -8,3.581728 -8,8 v 1 c 0,-4.418272 3.581731,-8 8,-8 h 32 c 4.431988,0 5.332778,-1.5441 8,-4 l 8,-8 h 48 c 4.43198,0 8,3.568016 8,8 v -1 c 0,-4.431984 -3.56802,-8 -8,-8 z"
     sodipodi:nodetypes="ccssscssccscssc" />
  <path
     d="M 64,70 V 82 H 76 V 80 H 66 V 70 Z m 0,-6 c -9.941124,0 -18,8.058874 -18,18 0,9.941132 8.058876,18 18,18 9.941126,0 18.000002,-8.058876 18.000002,-18 0,-9.941126 -8.058876,-18.000002 -18.000002,-18 z m 0,2 c 8.836558,-2e-6 16.000002,7.163442 16.000002,16 0,8.836558 -7.163444,16.00001 -16.000002,16.000002 -8.836556,0 -16,-7.163444 -16,-16.000002 0,-8.836556 7.163444,-16 16,-16 z"
     style="opacity:0.6;fill:currentColor;fill-opacity:1;stroke-width:2.25;stroke-linecap:round;stroke-linejoin:round"
     id="path5851"
     class="ColorScheme-Text" />
</svg>

<?xml version="1.0" encoding="UTF-8" standalone="no"?>
<!-- Created with Inkscape (http://www.inkscape.org/) -->

<svg
   width="128"
   height="128"
   viewBox="0 0 128 128"
   version="1.1"
   id="svg5"
   inkscape:version="1.2.1 (1:1.2.1+202210291243+9c6d41e410)"
   sodipodi:docname="folder-temp-open.svg"
   xmlns:inkscape="http://www.inkscape.org/namespaces/inkscape"
   xmlns:sodipodi="http://sodipodi.sourceforge.net/DTD/sodipodi-0.dtd"
   xmlns="http://www.w3.org/2000/svg"
   xmlns:svg="http://www.w3.org/2000/svg">
  <sodipodi:namedview
     id="namedview7"
     pagecolor="#ffffff"
     bordercolor="#000000"
     borderopacity="0.25"
     inkscape:showpageshadow="2"
     inkscape:pageopacity="0.0"
     inkscape:pagecheckerboard="0"
     inkscape:deskcolor="#d1d1d1"
     inkscape:document-units="px"
     showgrid="false"
     inkscape:zoom="6.4453125"
     inkscape:cx="64"
     inkscape:cy="64"
     inkscape:window-width="1920"
     inkscape:window-height="1018"
     inkscape:window-x="0"
     inkscape:window-y="28"
     inkscape:window-maximized="1"
     inkscape:current-layer="svg5" />
  <defs
     id="defs2">
    <style
       id="current-color-scheme"
       type="text/css">
         .ColorScheme-Highlight { color:#3daee9; }
     </style>
  </defs>
  <path
     d="m 16,17 c -4.431996,0 -8,3.568004 -8,8 v 80 c 0,4.432 3.568004,8 8,8 h 96 c 4.432,0 8,-3.568 8,-8 V 37 c 0,-4.431996 -3.568,-8 -8,-8 H 64 l -8,-8 c -2.7171,-2.640384 -3.568004,-4 -8,-4 z"
     style="opacity:0.3;fill:#000000;stroke-width:4"
     id="path1016"
     sodipodi:nodetypes="ssssssssccss" />
  <path
     id="rect184"
     style="fill:currentColor;fill-opacity:1;stroke-width:4"
     class="ColorScheme-Highlight"
     d="m 16,16 c -4.431996,0 -8,3.568003 -8,8 v 80 c 0,4.432 3.568004,8 8,8 h 96 c 4.432,0 8,-3.568 8,-8 V 36 c 0,-4.431996 -3.568,-8 -8,-8 H 64 l -8,-8 c -2.754764,-2.517342 -3.568004,-4 -8,-4 z"
     sodipodi:nodetypes="sccsssssccss" />
  <path
     id="path1511"
     style="opacity:0.4;fill:#000000;fill-opacity:1;stroke-width:2"
     d="m 16,16 c -4.431988,0 -7.9999998,3.568012 -7.9999998,8 v 36 c 0,-4.418272 3.5817318,-8 7.9999998,-8 h 32 c 4.431988,0 5.33278,-1.5441 8,-4 l 8,-8 h 48 c 4.43198,0 8,3.568016 8,8 V 36 c 0,-4.431988 -3.56801,-8 -8,-8 H 64 l -8,-8 c -2.754756,-2.517336 -3.568012,-4 -8,-4 z" />
  <path
     id="path3081"
     style="opacity:0.2;fill:#ffffff;stroke-width:4"
     d="m 64,40 -8,8 c -2.66722,2.455902 -3.56801,4 -8,4 H 16 c -4.418269,0 -8,3.581728 -8,8 v 1 c 0,-4.418272 3.581731,-8 8,-8 h 32 c 4.431988,0 5.332778,-1.5441 8,-4 l 8,-8 h 48 c 4.43198,0 8,3.568016 8,8 v -1 c 0,-4.431984 -3.56802,-8 -8,-8 z"
     sodipodi:nodetypes="ccssscssccscssc" />
  <path
     d="m 63.999999,70 v 11.999999 h 11.999999 v -2 H 65.999999 V 70 Z m 0,-6 C 54.058874,64 46,72.058874 46,81.999999 46,91.94113 54.058876,99.999998 63.999999,99.999998 73.941124,99.999998 82,91.941122 82,81.999999 82,72.058874 73.941124,63.999998 63.999999,64 Z m 0,2 C 72.836557,65.999998 80,73.163441 80,81.999999 80,90.836557 72.836557,98.000008 63.999999,98 55.163443,98 48,90.836557 48,81.999999 48,73.163443 55.163443,66 63.999999,66 Z"
     style="opacity:0.6;fill:#ffffff;fill-opacity:1;stroke-width:2.25;stroke-linecap:round;stroke-linejoin:round"
     id="path5851"
     sodipodi:nodetypes="cccccccssssssssss" />
</svg>
